!!!COM: Georges Bizet
!!!CNT: Francais
!!!TXO: Francais
!!!OTL: L'Esprit Saint
!!!LYR: anonymous
!!!ENC: Jacob Pegg
!!!YOR: Romantic French Song 1830-1870 -David Tunley, ed.,
!!!YOR: New York: Garland Publishing, Inc., 1995, Vol. 4
!!!ODT: 1869/
!!NB: Vocal melody and text only encoded.
!!NB: First instance of melodic material only encoded.
**kern	**silbe
*clef G2	*
*k[f#]	*
*M4/4	*
!!created: 5/8/03 8:11
!!proofed and posted: 5/8/03 12:18
!!edit time: 46 min.
=7	=7
{4e	{Quel
8.e	feu
16f#	s'al-
4g	-lu-
(8.g	-me
16a)	|
=8	=8
4b	dans
4b	mon
4e}	coeur!}
8r	.
{8e	{Quel
=9	=9
2ee	Dieu
12dd	vient
12cc	ha-
12b	-bi-
(12a	-ter
12b)	|
12cc	mon
=10	=10
(4.b	a^-
8g)	|
[4e	me!
8e]}	|}
8r	.
=11	=11
{4f#	{A
8.f#	son
16g	as-
4a	-pect
4b	con-
=12	=12
4f#	-so-
(8.f#	-la-
16g)	|
[8a	-teur,
16a]}	|}
16r	.
{4b	{Et
=13	=13
(12f#	je
12b)	|
12dd	m'e/-
[4ff#	-clai-
6ff#]	-re
12cc#	et
(12cc#	je
12dd#)	|
12ee	m'en-
=14	=14
(4.dd#	-flam-
8ff#)	|
[4b	-me!
8b]}	|}
8r	.
=15	=15
{[4gg	{Ah!
8gg]	|
8r	.
(8ff#	viens~
8ee)	|
8.ddn	~je
16cc#	t'a-
=16	=16
[2b	-do-
8b]}	-re!}
8r	.
{8.b	{je
16ee	t'a-
=17	=17
2ee	-dore
8dd	Es-
8ccn	-prit
8.b	cre/-
16a	-a-
=18	=18
[2g	-teur!
4g]}	|}
4r	.
=19	=19
{2b	{Un
4.b	jour
8b	plus
=20	=20
[2cc#	pur
4cc#_	|
8cc#]}	|}
8r	.
=21	=21
{2dd#	{luit
4.dd#	a\
8dd#	mes
=22	=22
[2ee	yeux,
4ee_	|
8ee]}	|}
8r	.
=23	=23
{2ee	{Dieu
4.dd#	de
8dd#	clar-
=24	=24
[4cc#	-te/,
8cc#]}	|}
8r	.
{2b	{je
=25	=25
2.ff#	t'en
4cc#	rends
=26	=26
2cc#	gra^-
4dd#}	-ce!}
4r	.
=27	=27
{2ff#	{Un
4.f#	jour
8f#	plus
=28	=28
(2gn	pur
4f#)}	|}
4r	.
=29	=29
{2ff#	{luit
4.f#	a\
8f#	mes
=30	=30
[2f#	yeux!
4f#_	|
8f#_	|
16f#]}	|}
16r	.
=31	=31
{4g	{Je
(8.g	vois
16a)	|
4b	fuir
(8.b	l'es-
16cc)	|
=32	=32
4dd	-prit
8.dd	te/-
16dd	-ne/-
4g}	-breux;}
8r	.
{8g	{La
=33	=33
2gg	foi
(12ff#	dans
12ee)	|
12dd#	mon
12cc#	coeur
12dd#	prend
12ee	sa
=34	=34
(4.ff#	pla-
8dd#)	|
[4b	-ce:
8b]}	|}
8r	.
=35	=35
{4gg	{Tous
8.gg	mes
16gg	de/-
8ff#	-sirs
8ee	sont
8ddn	pour
8ccn	les
=36	=36
(2b	cieux!
[4a)	|
8a_	|
16a]}	|}
16r	.
=37	=37
{4g#	{Tous
8.g#	mes
16g#	de/-
8a	-sirs
8b	sont
8.cc#	pour
16dd#	les
=38	=38
[1ee	cieux!
=39	=39
4ee]	|
4gg#	|
[8ff#	|
16ff#]}	|}
16r	.
{4ee	{sont
=40	=40
2ee	pour
(2dd#;	les
64eeq)	|
=41	=41
[2ee	cieux!
4ee]}	|}
4r	.
*-	*-
